X:21178 
T:SHASKEEN REEL, The 
B:DMI.0802
Z:Nordberg/Black
N:Source has this as single (A-B)
R:reel
%Q:1/4=180
M:C|
L:1/8
K:G
DE|G3B A2Ac|dged cAAc|BdBG Ac AF|GBAG FDEF|
GFGB A2 Ac|dged cAAg|fefa ecAc|BGAF G2:|
Bc|dggf g2fg|abag fddc|BcBG Ac AF|GBAG FDD2|
dggf g2fg|abag fdde|fefa ecAc|BGAF G2:|

%%%

